X: 123
T: J'ay pris amours II
N: Derived from Mar3042-Jay_pris_amours_II.krn
C: Johannes Martini
%%abc-version 2.0
%%abcx-abcm2ps-target-version 5.9.1 (29 Sep 2008)
%%abc-creator hum2abc beta
%%abcx-conversion-date 2019/02/17 07:19:43
%%abc-edited-by Jesse Rodin
%%abc-edited-by Chris Gage 12-03-2014
%%abcx-initial-encoding-date 2015/03/01/
%%humdrum-veritas 1595270126
%%humdrum-veritas-data 370719583
%%linebreak <none>
%%barnumbers 0
L: 1/4
M: 2/1
Q: 1/2=120
%%staves [1 2 3 4]
V: 1 clef=treble
V: 2 clef=treble-8
V: 3 clef=treble-8
V: 4 clef=bass
K: F
[V:1] z8 | 
[V:2] A8 | 
[V:3] d8 | 
[V:4] D,8 | 
[V:1] A8 | 
[V:2] A4A4 | 
[V:3] e4f4 | 
[V:4] C,4D,4- | 
[V:1] F4G4 | 
[V:2] B8 | 
[V:3] d8 | 
[V:4] D,4B,,4 | 
[V:1] A8 | 
[V:2] A6B2 | 
[V:3] z8 | 
[V:4] C,4D,4 | 
[V:1] B6AG | 
[V:2] d8 | 
[V:3] z4B4 | 
[V:4] G,,8 | 
[V:1] F4G4 | 
[V:2] z4B4 | 
[V:3] A4G4 | 
[V:4] z8 | 
[V:1] A4B4 | 
[V:2] A4G4 | 
[V:3] F4G2B2 | 
[V:4] z8 | 
[V:1] c4B2G2- | 
[V:2] F4G2B2 | 
[V:3] A4B4 | 
[V:4] z8 | 
[V:1] G2F2G2E2 | 
[V:2] A4B4 | 
[V:3] z4G4 | 
[V:4] z8 | 
[V:1] D4z4 | 
[V:2] z4G4 | 
[V:3] F4E4 | 
[V:4] z8 | 
[V:1] D4G4 | 
[V:2] F4E4 | 
[V:3] D2D4^C2 | 
[V:4] z8 | 
[V:1] F2EDC2E2- | 
[V:2] D2F4E2 | 
[V:3] D2A4G2 | 
[V:4] z8 | 
[V:1] E2D4^C2 | 
[V:2] F2A2G4 | 
[V:3] A2F2E4 | 
[V:4] z8 | 
[V:1] D8 | 
[V:2] A8 | 
[V:3] D2F3ED2 | 
[V:4] D,8 | 
[V:1] z8 | 
[V:2] A4=B4 | 
[V:3] E4D4 | 
[V:4] C,4D,4 | 
[V:1] G8 | 
[V:2] c8 | 
[V:3] z4G4 | 
[V:4] E,8 | 
[V:1] F6A2- | 
[V:2] d8 | 
[V:3] B2A3GF2 | 
[V:4] D,6F,2- | 
[V:1] AGE2F2ED | 
[V:2] z4D4 | 
[V:3] c4A2A2- | 
[V:4] F,E,C,2D,2C,2 | 
[V:1] E4A,2D2- | 
[V:2] C4D4 | 
[V:3] AGFEF4 | 
[V:4] A,,4z2B,,2- | 
[V:1] DCA,3=B,CD | 
[V:2] F8 | 
[V:3] z8 | 
[V:4] B,,A,,F,,3G,,A,,B,, | 
[V:1] E2=B,2^C4 | 
[V:2] E8 | 
[V:3] z8 | 
[V:4] C,2G,,2A,,4 | 
[V:1] D8 | 
[V:2] F8- | 
[V:3] f6ed | 
[V:4] z2D,4C,B,, | 
[V:1] z8 | 
[V:2] F4G4 | 
[V:3] c2d3ce2- | 
[V:4] A,,2B,,3G,,C,2- | 
[V:1] z8 | 
[V:2] A8 | 
[V:3] edf3ga2 | 
[V:4] C,A,,D,3E,F,2 | 
[V:1] z8 | 
[V:2] B4F4- | 
[V:3] d2f3ed2- | 
[V:4] G,2D,3C,B,,2- | 
[V:1] z8 | 
[V:2] F4E4 | 
[V:3] dcd2e2c2 | 
[V:4] B,,A,,B,,2C,2A,,2 | 
[V:1] D8 | 
[V:2] D8 | 
[V:3] d4D4 | 
[V:4] B,,8 | 
[V:1] C8 | 
[V:2] A8 | 
[V:3] E8 | 
[V:4] A,,8 | 
[V:1] D8- | 
[V:2] F4G4 | 
[V:3] D8 | 
[V:4] B,,4G,,2B,,2- | 
[V:1] D4E4 | 
[V:2] F4E4 | 
[V:3] z4G4 | 
[V:4] B,,C,D,4^C,2 | 
[V:1] F8 | 
[V:2] D6EF | 
[V:3] F3GA3B | 
[V:4] D,3E,F,2E,D, | 
[V:1] E4z4 | 
[V:2] G8 | 
[V:3] c8 | 
[V:4] C,8 | 
[V:1] F2GAB2A2- | 
[V:2] d8 | 
[V:3] z8 | 
[V:4] z8 | 
[V:1] AGE2D2F2- | 
[V:2] c4d4 | 
[V:3] z8 | 
[V:4] z8 | 
[V:1] FEC2z2G2- | 
[V:2] A4=B4 | 
[V:3] z8 | 
[V:4] z8 | 
[V:1] GFEDE4 | 
[V:2] c8 | 
[V:3] z8 | 
[V:4] z8 | 
[V:1] D2A3GB2- | 
[V:2] d8- | 
[V:3] f6d2- | 
[V:4] D,6G,2 | 
[V:1] BAG4^F2 | 
[V:2] d8 | 
[V:3] dcB2A4 | 
[V:4] F,2G,2D,4 | 
[V:1] G4D4- | 
[V:2] z4B4 | 
[V:3] G2B3AG2 | 
[V:4] G,,8 | 
[V:1] D2C2B,4 | 
[V:2] A4G4 | 
[V:3] F3EG4 | 
[V:4] z4G,,4 | 
[V:1] A,6G,2 | 
[V:2] F6G2 | 
[V:3] z4d4 | 
[V:4] D,6E,F, | 
[V:1] G,4z4 | 
[V:2] B4G4 | 
[V:3] d6e2 | 
[V:4] G,6F,E, | 
[V:1] z8 | 
[V:2] A8 | 
[V:3] f3ec4 | 
[V:4] D,3E,F,4 | 
[V:1] G6B2- | 
[V:2] B8- | 
[V:3] B4_e4 | 
[V:4] G,2_E,3F,G,2- | 
[V:1] BAF2G4 | 
[V:2] B8 | 
[V:3] d4G4 | 
[V:4] G,F,D,2_E,4 | 
[V:1] F6B2- | 
[V:2] z4d4 | 
[V:3] A4B4 | 
[V:4] D,4z4 | 
[V:1] BAA4G2 | 
[V:2] c4B4 | 
[V:3] F4G4 | 
[V:4] z8 | 
[V:1] A4F2D2 | 
[V:2] A4d4 | 
[V:3] D4z4 | 
[V:4] F,4D,2G,2- | 
[V:1] E2F4ED | 
[V:2] z4B4 | 
[V:3] z8 | 
[V:4] G,2F,2D,2E,2 | 
[V:1] C4z4 | 
[V:2] A4B4 | 
[V:3] z4F4 | 
[V:4] F,4B,,4- | 
[V:1] z8 | 
[V:2] F6G2 | 
[V:3] B6AG | 
[V:4] B,,2D,4C,B,, | 
[V:1] C4B,2D2- | 
[V:2] A4B4 | 
[V:3] ^F3EG4 | 
[V:4] A,,4G,,2B,,2- | 
[V:1] DEF2G2B2 | 
[V:2] F4E4 | 
[V:3] z4B4 | 
[V:4] B,,C,D,2E,2G,2 | 
[V:1] A2GFEDC2 | 
[V:2] A8 | 
[V:3] c6BA | 
[V:4] F,2E,D,C,2F,2 | 
[V:1] E3FG4 | 
[V:2] G8 | 
[V:3] B3AB2c2 | 
[V:4] G,F,E,D,E,4 | 
[V:1] F2A3GFE | 
[V:2] A8- | 
[V:3] d2cBAzA2- | 
[V:4] D,2F,3E,D,C, | 
[V:1] F2ED^C3=B, | 
[V:2] A8- | 
[V:3] AGF2E4 | 
[V:4] D,4A,,4 | 
[V:1] D8- | 
[V:2] A8- | 
[V:3] D8- | 
[V:4] z4D,4 | 
[V:1] D8 |]  
[V:2] A8 |]  
[V:3] D8 |]  
[V:4] D,8 |]  
